svgs/sharp-solid/cowbell.svg

<svg xmlns="http://www.w3.org/2000/svg" viewBox="0 0 448 512"><!--! Font Awesome Pro 6.6.0 by @fontawesome - https://fontawesome.com License - https://fontawesome.com/license (Commercial License) Copyright 2024 Fonticons, Inc. --><path d="M128 0l24 0L296 0l24 0 0 24 0 72 64 0 64 320L0 416 64 96l64 0 0-72 0-24zM272 48l-96 0 0 48 96 0 0-48zm16 400c0 35.3-28.7 64-64 64s-64-28.7-64-64l128 0z"/></svg>

<svg xmlns="http://www.w3.org/2000/svg" viewBox="0 0 448 512"><!--! Font Awesome Pro 6.5.2 by @fontawesome - https://fontawesome.com License - https://fontawesome.com/license (Commercial License) Copyright 2024 Fonticons, Inc. --><path d="M128 0h24H296h24V24 96h64l64 320H0L64 96h64V24 0zM272 48H176V96h96V48zm16 400c0 35.3-28.7 64-64 64s-64-28.7-64-64H288z"/></svg>
